pix_core/a/view_icon_active.svg

<!DOCTYPE svg PUBLIC "-//W3C//DTD SVG 1.1//EN" "http://www.w3.org/Graphics/SVG/1.1/DTD/svg11.dtd" [
	<!ENTITY ns_flows "http://ns.adobe.com/Flows/1.0/">
]><svg xmlns="http://www.w3.org/2000/svg" width="16" height="16" viewBox="0 -1 16 16" preserveAspectRatio="xMinYMid meet" overflow="visible" enable-background="new 0 -1 16 16"><path d="M9 14h7v-6h-7v6zm5-4v2h-3v-2h3zm-7-2h-7v6h7v-6zm-5 4v-2h3v2h-3zm7-12v6h7v-6h-7zm5 4h-3v-2h3v2zm-7-4h-7v6h7v-6zm-5 4v-2h3v2h-3z" fill="#888"/></svg>

<?xml version="1.0" encoding="utf-8"?>
<!-- Generator: Adobe Illustrator 15.1.0, SVG Export Plug-In  -->
<!DOCTYPE svg PUBLIC "-//W3C//DTD SVG 1.1//EN" "http://www.w3.org/Graphics/SVG/1.1/DTD/svg11.dtd" [
	<!ENTITY ns_flows "http://ns.adobe.com/Flows/1.0/">
]>
<svg version="1.1"
	 xmlns="http://www.w3.org/2000/svg" xmlns:xlink="http://www.w3.org/1999/xlink" xmlns:a="http://ns.adobe.com/AdobeSVGViewerExtensions/3.0/"
	 x="0px" y="0px" width="16px" height="16px" viewBox="0 -1 16 16" style="overflow:visible;enable-background:new 0 -1 16 16;"
	 xml:space="preserve" preserveAspectRatio="xMinYMid meet">
<defs>
</defs>
<path style="fill:#29a1c4;" d="M9,14h7V8H9V14z M14,10v2h-3v-2H14z M7,8H0v6h7V8z M2,12v-2h3v2H2z M9,0v6h7V0H9z M14,4h-3V2h3V4z
	 M7,0H0v6h7V0z M2,4V2h3v2H2z"/>
</svg>
